X:368
T:Davy Nick Nack
C:Joe Buchanan's Scottish Tome - Page 213.3
I:213 3
Z:Carl Allison
R:March
L:1/8
M:2/4
K:G
D2 | "G"G/G/G/A/ BB | "G"G/G/G/B/ BB | "Am"d/c/B/c/ AA | "Am"d/c/B/c/ "D7"AA | 
"G"G/G/G/A/ BB | "G"G/G/G/B/ BB | "Am"d/c/B/c/ "D7"A/c/B/A/ | "G"GB G2 :|
B/c/ | "G"d>c Bd | "G"gg d2 | "Am"d/c/B/c/ "D7"AA | "Am"d/c/B/c/ "D7"AA | 
"G"d>c Bd | "G"gg d2 | "Am"d/c/B/c/ "D7"A/c/B/A/ | "G"GB G2 :|

